images/discord.svg

<svg width="33" height="33" viewBox="0 0 33 33" fill="none" xmlns="http://www.w3.org/2000/svg">
<path d="M32.9999 16.5C32.9999 25.6126 25.6126 32.9999 16.5 32.9999C7.38728 32.9999 0 25.6126 0 16.5C0 7.38728 7.38728 0 16.5 0C25.6126 0 32.9999 7.38728 32.9999 16.5Z" fill="#00AA96"/>
<path d="M22.1855 9.0752H10.8147C9.85582 9.0752 9.07513 9.83419 9.07513 10.7747V21.9287C9.07513 22.8692 9.85582 23.6282 10.8147 23.6282H20.4375L19.9877 22.1019L21.0739 23.0837L22.1007 24.0077L23.9251 25.5752V10.7747C23.9251 9.83419 23.1444 9.0752 22.1855 9.0752ZM18.9101 19.8497C18.9101 19.8497 18.6046 19.4949 18.35 19.1814C19.4616 18.8762 19.8859 18.1997 19.8859 18.1997C19.538 18.4224 19.2071 18.5792 18.9101 18.6864C18.4858 18.8597 18.0785 18.9752 17.6796 19.0412C16.865 19.1897 16.1183 19.1484 15.4818 19.0329C14.9981 18.9422 14.5823 18.8102 14.2344 18.6782C14.0393 18.6039 13.8271 18.5132 13.615 18.3977C13.5895 18.3812 13.5641 18.3729 13.5386 18.3564C13.5216 18.3482 13.5132 18.3399 13.5047 18.3317C13.3519 18.2492 13.2671 18.1914 13.2671 18.1914C13.2671 18.1914 13.6744 18.8514 14.7521 19.1649C14.4975 19.4784 14.1835 19.8497 14.1835 19.8497C12.3082 19.7919 11.5954 18.5957 11.5954 18.5957C11.5954 15.9392 12.8173 13.7859 12.8173 13.7859C14.0393 12.8949 15.2018 12.9197 15.2018 12.9197L15.2867 13.0187C13.7592 13.4477 13.0549 14.0994 13.0549 14.0994C13.0549 14.0994 13.2416 14.0004 13.5556 13.8602C14.4635 13.4724 15.1848 13.3652 15.4818 13.3404C15.5327 13.3322 15.5752 13.3239 15.6261 13.3239C16.1437 13.2579 16.7292 13.2414 17.3402 13.3074C18.1463 13.3982 19.0119 13.6292 19.8944 14.0994C19.8944 14.0994 19.224 13.4807 17.7815 13.0517L17.9003 12.9197C17.9003 12.9197 19.0628 12.8949 20.2847 13.7859C20.2847 13.7859 21.5067 15.9392 21.5067 18.5957C21.5067 18.5957 20.7854 19.7919 18.9101 19.8497ZM14.9642 15.9969C14.4805 15.9969 14.0987 16.4094 14.0987 16.9127C14.0987 17.4159 14.489 17.8284 14.9642 17.8284C15.4479 17.8284 15.8297 17.4159 15.8297 16.9127C15.8382 16.4094 15.4479 15.9969 14.9642 15.9969ZM18.0615 15.9969C17.5778 15.9969 17.1959 16.4094 17.1959 16.9127C17.1959 17.4159 17.5863 17.8284 18.0615 17.8284C18.5452 17.8284 18.927 17.4159 18.927 16.9127C18.927 16.4094 18.5452 15.9969 18.0615 15.9969Z" fill="#EBFFF3"/>
</svg>

<svg xmlns="http://www.w3.org/2000/svg" width="33" height="33" fill="none" xmlns:v="https://vecta.io/nano"><path d="M33 16.5C33 25.613 25.613 33 16.5 33S0 25.613 0 16.5 7.387 0 16.5 0 33 7.387 33 16.5z" fill="#00aa96"/><path d="M22.186 9.075H10.815c-.959 0-1.74.759-1.74 1.699v11.154c0 .941.781 1.7 1.74 1.7h9.623l-.45-1.526 1.086.982 1.027.924 1.824 1.567v-14.8c0-.941-.781-1.699-1.74-1.699zM18.91 19.85l-.56-.668c1.112-.305 1.536-.982 1.536-.982a4.91 4.91 0 0 1-.976.487c-.424.173-.832.289-1.23.355a6.11 6.11 0 0 1-2.198-.008c-.484-.091-.899-.223-1.247-.355a5.05 5.05 0 0 1-.619-.28c-.026-.017-.051-.025-.076-.041-.017-.008-.025-.017-.034-.025l-.238-.14s.407.66 1.485.973l-.569.685c-1.875-.058-2.588-1.254-2.588-1.254 0-2.657 1.222-4.81 1.222-4.81 1.222-.891 2.385-.866 2.385-.866l.085.099c-1.527.429-2.232 1.081-2.232 1.081l.501-.239c.908-.388 1.629-.495 1.926-.52.051-.008.093-.017.144-.017.518-.066 1.103-.082 1.714-.017a7.06 7.06 0 0 1 2.554.792s-.67-.619-2.113-1.048l.119-.132s1.162-.025 2.384.866a10.82 10.82 0 0 0 1.222 4.81s-.721 1.196-2.597 1.254zm-3.946-3.853c-.484 0-.866.413-.866.916s.39.916.866.916c.484 0 .866-.412.866-.916.008-.503-.382-.916-.866-.916zm3.097 0c-.484 0-.866.413-.866.916s.39.916.866.916c.484 0 .866-.412.866-.916s-.382-.916-.866-.916z" fill="#ebfff3"/></svg>
